svgs/sharp-thin/table-cells.svg

<svg xmlns="http://www.w3.org/2000/svg" viewBox="0 0 512 512"><!--! Font Awesome Pro 6.6.0 by @fontawesome - https://fontawesome.com License - https://fontawesome.com/license (Commercial License) Copyright 2024 Fonticons, Inc. --><path d="M352 48l0 128 144 0 0-128L352 48zm-16 0L176 48l0 128 160 0 0-128zM160 48L16 48l0 128 144 0 0-128zM16 192l0 128 144 0 0-128L16 192zm0 144l0 128 144 0 0-128L16 336zM176 464l160 0 0-128-160 0 0 128zm176 0l144 0 0-128-144 0 0 128zM496 320l0-128-144 0 0 128 144 0zM0 32l16 0 480 0 16 0 0 16 0 416 0 16-16 0L16 480 0 480l0-16L0 48 0 32zM176 320l160 0 0-128-160 0 0 128z"/></svg>

<svg xmlns="http://www.w3.org/2000/svg" viewBox="0 0 512 512"><!--! Font Awesome Pro 6.5.2 by @fontawesome - https://fontawesome.com License - https://fontawesome.com/license (Commercial License) Copyright 2024 Fonticons, Inc. --><path d="M352 48V176H496V48H352zm-16 0H176V176H336V48zM160 48H16V176H160V48zM16 192V320H160V192H16zm0 144V464H160V336H16zM176 464H336V336H176V464zm176 0H496V336H352V464zM496 320V192H352V320H496zM0 32H16 496h16V48 464v16H496 16 0V464 48 32zM176 320H336V192H176V320z"/></svg>
